!!!COM: Palestrina, Giovanni Perluigi da
!!!OPR: Missa Sacerdos et pontifex
!!!OMD: Credo
!!!OTL: Et resurrexit
**kern	**kern	**kern	**kern
*Itenor	*Itenor	*Icalto	*Icant
!Tenor 2	!Tenor 1	!Altus	!Cantus
*clefGv2	*clefGv2	*clefG2	*clefG2
*k[b-]	*k[b-]	*k[b-]	*k[b-]
*G:dor	*G:dor	*G:dor	*G:dor
*M3/2	*M3/2	*M3/2	*M3/2
=76	=76	=76	=76
2c	2c	2e	2g
2A	2c	2e	2a
2G	2d	2g	2b
=77	=77	=77	=77
1F	1f	1a	1cc
2f	2d	2a	2dd
=78	=78	=78	=78
2.g	2.c	2.cc	2.ee
4g	4c	4cc	4ee
2c	2A	2cc	2ff
=79	=79	=79	=79
1d	1G	1b-	1gg
2d	2d	2a	2ff
=80	=80	=80	=80
2e	2c#	2a	2ee
2f	2d	2a	2dd
2e	2A	2a	2cc#
=81	=81	=81	=81
2d	2B-	4g	2dd
.	.	4f	.
2.g	2.c	4e	2.ee
.	.	4d	.
.	.	4e	.
4f	4d	4f	4dd
=82	=82	=82	=82
2d	2B-	2g	1dd
1e	1A	1a	.
.	.	.	2cc#
=83	=83	=83	=83
1f#	1d	1a	1dd
2r	2r	2r	2r
*-	*-	*-	*-
!!!CDT: 1525/^1526/-1594/2/2
!!!OCY: Italia
!!!AGN: Mass (Paraphrase)
!!!AST: renaissance, vocal
!!!ASW: Antiphon
!!!PWK: Masses, Book 7
!!!RNB: Cadence finals: C,D
!!!YOR: Le Opere Complete, v. 23, p. 82
!!!YOO: Rome, Italy: Fratelli Scalera
!!!END: 1992//
!!!EED: John Miller
!!!YEC: Copyright 2000, John Miller
!!!YEN: United States of America
!!!YEM: Rights to all derivative electronic formats reserved.
!!!YEM: Refer to licensing agreement for further details.
!!!YEM: This file must be accompanied by the licensing agreement.
!!!YEM: A copy of the licensing agreement may be found at http://www.music-cog.ohio-state.edu/HumdrumDatabases/Palestrina/license.txt
!!!EMD: converted to Humdrum by Bret Aarden
